src/lib/packages/icons/src/assets/line/story.svg

<svg xmlns="http://www.w3.org/2000/svg" width="24" height="24" fill="none"><path fill="currentColor" d="M18.66 4.25h-3.224c-.521-1.296-1.69-2-3.436-2H6C3.582 2.25 2.25 3.582 2.25 6v12c0 2.418 1.332 3.75 3.75 3.75h6c1.746 0 2.916-.704 3.436-2h3.224c1.964 0 3.09-1.126 3.09-3.09V7.34c0-1.964-1.126-3.09-3.09-3.09Zm-6.66 16H6c-1.577 0-2.25-.673-2.25-2.25V6c0-1.577.673-2.25 2.25-2.25h6c1.577 0 2.25.673 2.25 2.25v12c0 1.577-.673 2.25-2.25 2.25Zm8.25-3.59c0 1.144-.446 1.59-1.59 1.59h-2.928c.004-.085.018-.162.018-.25V6c0-.088-.015-.165-.018-.25h2.928c1.144 0 1.59.446 1.59 1.59v9.32Z"/></svg>

<svg width="24" height="24" viewBox="0 0 24 24" fill="none" xmlns="http://www.w3.org/2000/svg">
<path d="M18.66 4.25H15.436C14.915 2.954 13.746 2.25 12 2.25H6C3.582 2.25 2.25 3.582 2.25 6V18C2.25 20.418 3.582 21.75 6 21.75H12C13.746 21.75 14.916 21.046 15.436 19.75H18.66C20.624 19.75 21.75 18.624 21.75 16.66V7.34C21.75 5.376 20.624 4.25 18.66 4.25ZM12 20.25H6C4.423 20.25 3.75 19.577 3.75 18V6C3.75 4.423 4.423 3.75 6 3.75H12C13.577 3.75 14.25 4.423 14.25 6V18C14.25 19.577 13.577 20.25 12 20.25ZM20.25 16.66C20.25 17.804 19.804 18.25 18.66 18.25H15.732C15.736 18.165 15.75 18.088 15.75 18V6C15.75 5.912 15.735 5.835 15.732 5.75H18.66C19.804 5.75 20.25 6.196 20.25 7.34V16.66Z" fill="currentColor"/>
</svg>
